static/icons/camera.svg

<svg xmlns="http://www.w3.org/2000/svg" width="24" height="24" viewBox="0 0 24 24">
  <path fill-rule="evenodd" d="M12,17.0192308 C12.7307729,17.0192308 13.4038431,16.8397454 14.0192308,16.4807692 C14.6346185,16.1217931 15.1217931,15.6346185 15.4807692,15.0192308 C15.8397454,14.4038431 16.0192308,13.7307729 16.0192308,13 C16.0192308,12.2692271 15.8397454,11.5961569 15.4807692,10.9807692 C15.1217931,10.3653815 14.6346185,9.87820692 14.0192308,9.51923077 C13.4038431,9.16025462 12.7307729,8.98076923 12,8.98076923 C11.2692271,8.98076923 10.5961569,9.16025462 9.98076923,9.51923077 C9.36538154,9.87820692 8.87820692,10.3653815 8.51923077,10.9807692 C8.16025462,11.5961569 7.98076923,12.2692271 7.98076923,13 C7.98076923,13.7307729 8.16025462,14.4038431 8.51923077,15.0192308 C8.87820692,15.6346185 9.36538154,16.1217931 9.98076923,16.4807692 C10.5961569,16.8397454 11.2692271,17.0192308 12,17.0192308 Z M9.59615385,5 L14.4038462,5 L15.8653846,6.57692308 L18.4230769,6.57692308 C18.8589765,6.57692308 19.2307677,6.73717788 19.5384615,7.05769231 C19.8461554,7.37820673 20,7.75640808 20,8.19230769 L20,17.8076923 C20,18.2435919 19.8461554,18.6217933 19.5384615,18.9423077 C19.2307677,19.2628221 18.8589765,19.4230769 18.4230769,19.4230769 L5.57692308,19.4230769 C5.14102346,19.4230769 4.76923231,19.2628221 4.46153846,18.9423077 C4.15384462,18.6217933 4,18.2435919 4,17.8076923 L4,8.19230769 C4,7.75640808 4.15384462,7.37820673 4.46153846,7.05769231 C4.76923231,6.73717788 5.14102346,6.57692308 5.57692308,6.57692308 L8.13461538,6.57692308 L9.59615385,5 Z M9.44230769,13 C9.44230769,12.5384592 9.55769115,12.1121814 9.78846154,11.7211538 C10.0192319,11.3301262 10.3301262,11.0192319 10.7211538,10.7884615 C11.1121814,10.5576912 11.5384592,10.4423077 12,10.4423077 C12.4615408,10.4423077 12.8878186,10.5576912 13.2788462,10.7884615 C13.6698737,11.0192319 13.9807681,11.3301262 14.2115385,11.7211538 C14.4423088,12.1121814 14.5576923,12.5384592 14.5576923,13 C14.5576923,13.4615408 14.4423088,13.8878186 14.2115385,14.2788462 C13.9807681,14.6698737 13.6698737,14.9807681 13.2788462,15.2115385 C12.8878186,15.4423088 12.4615408,15.5576923 12,15.5576923 C11.5384592,15.5576923 11.1121814,15.4423088 10.7211538,15.2115385 C10.3301262,14.9807681 10.0192319,14.6698737 9.78846154,14.2788462 C9.55769115,13.8878186 9.44230769,13.4615408 9.44230769,13 Z"/>
</svg>

<svg xmlns="http://www.w3.org/2000/svg" width="24" height="24">
    <path fill-rule="evenodd" d="M12 17.02c.73 0 1.404-.18 2.02-.54a3.995 3.995 0 0 0 1.46-1.46 3.936 3.936 0 0 0 .54-2.02c0-.73-.18-1.404-.54-2.02a3.995 3.995 0 0 0-1.46-1.46A3.936 3.936 0 0 0 12 8.98c-.73 0-1.404.18-2.02.54a3.995 3.995 0 0 0-1.46 1.46A3.936 3.936 0 0 0 7.98 13c0 .73.18 1.404.54 2.02a3.995 3.995 0 0 0 1.46 1.46 3.936 3.936 0 0 0 2.02.54zM9.596 5h4.808l1.461 1.577h2.558c.436 0 .808.16 1.115.48.308.321.462.7.462 1.135v9.616c0 .436-.154.814-.462 1.134a1.49 1.49 0 0 1-1.115.481H5.577a1.49 1.49 0 0 1-1.115-.48A1.584 1.584 0 0 1 4 17.807V8.192c0-.436.154-.814.462-1.134a1.49 1.49 0 0 1 1.115-.481h2.558L9.596 5zm-.154 8c0-.462.116-.888.346-1.279.231-.39.542-.702.933-.933.391-.23.817-.346 1.279-.346.462 0 .888.116 1.279.346.39.231.702.542.933.933.23.391.346.817.346 1.279 0 .462-.116.888-.346 1.279-.231.39-.542.702-.933.933-.391.23-.817.346-1.279.346-.462 0-.888-.116-1.279-.346a2.601 2.601 0 0 1-.933-.933A2.471 2.471 0 0 1 9.442 13z"/>
</svg>
